#define sample_width 96
#define sample_height 64
static char sample_bits[] = {
0xc0, 0x0f, 0xfc, 0xc0, 0x0f, 0xfc, 0xc0, 0x0f, 0xfc, 0xc0, 0x0f, 0xfc,
0xc0, 0x0f, 0xfc, 0xc0, 0x0f, 0xfc, 0xc0, 0x0f, 0xfc, 0xc0, 0x0f, 0xfc,
0xc0, 0x0f, 0xfc, 0xc0, 0x0f, 0xfc, 0xc0, 0x0f, 0xfc, 0xc0, 0x0f, 0xfc,
0xc0, 0x0f, 0xfc, 0xc0, 0x0f, 0xfc, 0xc0, 0x0f, 0xfc, 0xc0, 0x0f, 0xfc,
0xc0, 0x0f, 0xfc, 0xc0, 0x0f, 0xfc, 0xc0, 0x0f, 0xfc, 0xc0, 0x0f, 0xfc,
0xc0, 0x0f, 0xfc, 0xc0, 0x0f, 0xfc, 0xc0, 0x0f, 0xfc, 0xc0, 0x0f, 0xfc,
0x3f, 0xf0, 0x03, 0x3f, 0xf0, 0x03, 0x3f, 0xf0, 0x03, 0x3f, 0xf0, 0x03,
0x3f, 0xf0, 0x03, 0x3f, 0xf0, 0x03, 0x3f, 0xf0, 0x03, 0x3f, 0xf0, 0x03,
0x3f, 0xf0, 0x03, 0x3f, 0xf0, 0x03, 0x3f, 0xf0, 0x03, 0x3f, 0xf0, 0x03,
0x3f, 0xf0, 0x03, 0x3f, 0xf0, 0x03, 0x3f, 0xf0, 0x03, 0x3f, 0xf0, 0x03,
0x3f, 0xf0, 0x03, 0x3f, 0xf0, 0x03, 0x3f, 0xf0, 0x03, 0x3f, 0xf0, 0x03,
0x3f, 0xf0, 0x03, 0x3f, 0xf0, 0x03, 0x3f, 0xf0, 0x03, 0x3f, 0xf0, 0x03,
0xc0, 0x0f, 0xfc, 0xc0, 0x0f, 0x00, 0xbf, 0x0f, 0xfc, 0xc0, 0x0f, 0xfc,
0xc0, 0x0f, 0xfc, 0xc0, 0x0f, 0x03, 0x3f, 0x0e, 0xfc, 0xc0, 0x0f, 0xfc,
0xc0, 0x0f, 0xfc, 0xc0, 0xcf, 0x03, 0x3f, 0x08, 0xfc, 0xc0, 0x0f, 0xfc,
0xc0, 0x0f, 0xfc, 0xc0, 0xff, 0x03, 0x3f, 0x10, 0xfc, 0xc0, 0x0f, 0xfc,
0xc0, 0x0f, 0xfc, 0xc0, 0xf7, 0x03, 0x3f, 0x30, 0xfc, 0xc0, 0x0f, 0xfc,
0xc0, 0x0f, 0xfc, 0xc0, 0xf3, 0x03, 0x3f, 0x70, 0xfc, 0xc0, 0x0f, 0xfc,
0x3f, 0xf0, 0x03, 0x3f, 0x0e, 0xfc, 0xc0, 0x0f, 0x03, 0x3f, 0xf0, 0x03,
0x3f, 0xf0, 0x03, 0x3f, 0x0f, 0xfc, 0xc0, 0x0f, 0x02, 0x3f, 0xf0, 0x03,
0x3f, 0xf0, 0x03, 0xbf, 0x0f, 0xfc, 0xc0, 0x0f, 0x00, 0x3f, 0xf0, 0x03,
0x3f, 0xf0, 0x03, 0xbf, 0x0f, 0xfc, 0xc0, 0x0f, 0x00, 0x3f, 0xf0, 0x03,
0x3f, 0xf0, 0x03, 0xff, 0x0f, 0xfc, 0xc0, 0x0f, 0x04, 0x3f, 0xf0, 0x03,
0x3f, 0xf0, 0x03, 0xff, 0x0f, 0xfc, 0xc0, 0x0f, 0x04, 0x3f, 0xf0, 0x03,
0xc0, 0x0f, 0xfc, 0x20, 0xf0, 0x03, 0x3f, 0xf0, 0xf3, 0xc0, 0x0f, 0xfc,
0xc0, 0x0f, 0xfc, 0x20, 0xf0, 0x03, 0x3f, 0xf0, 0xf3, 0xc0, 0x0f, 0xfc,
0xc0, 0x0f, 0xfc, 0x30, 0xf0, 0x03, 0x3f, 0xf0, 0xe3, 0xc0, 0x0f, 0xfc,
0xc0, 0x0f, 0xfc, 0x30, 0xf0, 0x03, 0x3f, 0xf0, 0xe3, 0xc0, 0x0f, 0xfc,
0xc0, 0x0f, 0xfc, 0x30, 0xf0, 0x03, 0x3f, 0xf0, 0xe3, 0xc0, 0x0f, 0xfc,
0xc0, 0x0f, 0xfc, 0x30, 0xf0, 0x03, 0x3f, 0xf0, 0xe3, 0xc0, 0x0f, 0xfc,
0x3f, 0xf0, 0x03, 0xcf, 0x0f, 0xfc, 0xc0, 0x0f, 0x1c, 0x3f, 0xf0, 0x03,
0x3f, 0xf0, 0x03, 0xcf, 0x0f, 0xfc, 0xc0, 0x0f, 0x1c, 0x3f, 0xf0, 0x03,
0x3f, 0xf0, 0x03, 0xcf, 0x0f, 0xfc, 0xc0, 0x0f, 0x1c, 0x3f, 0xf0, 0x03,
0x3f, 0xf0, 0x03, 0xcf, 0x0f, 0xfc, 0xc0, 0x0f, 0x1c, 0x3f, 0xf0, 0x03,
0x3f, 0xf0, 0x03, 0xcf, 0x0f, 0xfc, 0xc0, 0x0f, 0x1c, 0x3f, 0xf0, 0x03,
0x3f, 0xf0, 0x03, 0xcf, 0x0f, 0xfc, 0xc0, 0x0f, 0x1c, 0x3f, 0xf0, 0x03,
0xc0, 0x0f, 0xfc, 0x30, 0xf0, 0x03, 0x3f, 0xf0, 0xe3, 0xc0, 0x0f, 0xfc,
0xc0, 0x0f, 0xfc, 0x30, 0xf0, 0x03, 0x3f, 0xf0, 0xe3, 0xc0, 0x0f, 0xfc,
0xc0, 0x0f, 0xfc, 0x30, 0xf0, 0x03, 0x3f, 0xf0, 0xe3, 0xc0, 0x0f, 0xfc,
0xc0, 0x0f, 0xfc, 0x20, 0xf0, 0x03, 0x3f, 0xf0, 0xf3, 0xc0, 0x0f, 0xfc,
0xc0, 0x0f, 0xfc, 0x20, 0xf0, 0x03, 0x3f, 0xf0, 0xf3, 0xc0, 0x0f, 0xfc,
0xc0, 0x0f, 0xfc, 0x00, 0xf0, 0x03, 0x3f, 0xf0, 0xfb, 0xc0, 0x0f, 0xfc,
0x3f, 0xf0, 0x03, 0xff, 0x0f, 0xfc, 0xc0, 0x0f, 0x04, 0x3f, 0xf0, 0x03,
0x3f, 0xf0, 0x03, 0xbf, 0x0f, 0xfc, 0xc0, 0x0f, 0x00, 0x3f, 0xf0, 0x03,
0x3f, 0xf0, 0x03, 0xbf, 0x0f, 0xfc, 0xc0, 0x0f, 0x00, 0x3f, 0xf0, 0x03,
0x3f, 0xf0, 0x03, 0x3f, 0x0f, 0xfc, 0xc0, 0x0f, 0x02, 0x3f, 0xf0, 0x03,
0x3f, 0xf0, 0x03, 0x3f, 0x0e, 0xfc, 0xc0, 0x0f, 0x03, 0x3f, 0xf0, 0x03,
0x3f, 0xf0, 0x03, 0x3f, 0x0c, 0xfc, 0xc0, 0x8f, 0x03, 0x3f, 0xf0, 0x03,
0xc0, 0x0f, 0xfc, 0xc0, 0xf7, 0x03, 0x3f, 0x30, 0xfc, 0xc0, 0x0f, 0xfc,
0xc0, 0x0f, 0xfc, 0xc0, 0xff, 0x03, 0x3f, 0x10, 0xfc, 0xc0, 0x0f, 0xfc,
0xc0, 0x0f, 0xfc, 0xc0, 0xcf, 0x03, 0x3f, 0x08, 0xfc, 0xc0, 0x0f, 0xfc,
0xc0, 0x0f, 0xfc, 0xc0, 0x0f, 0x03, 0x3f, 0x0e, 0xfc, 0xc0, 0x0f, 0xfc,
0xc0, 0x0f, 0xfc, 0xc0, 0x0f, 0x00, 0xbf, 0x0f, 0xfc, 0xc0, 0x0f, 0xfc,
0xc0, 0x0f, 0xfc, 0xc0, 0x0f, 0xfc, 0xc0, 0x0f, 0xfc, 0xc0, 0x0f, 0xfc,
0x3f, 0xf0, 0x03, 0x3f, 0xf0, 0x03, 0x3f, 0xf0, 0x03, 0x3f, 0xf0, 0x03,
0x3f, 0xf0, 0x03, 0x3f, 0xf0, 0x03, 0x3f, 0xf0, 0x03, 0x3f, 0xf0, 0x03,
0x3f, 0xf0, 0x03, 0x3f, 0xf0, 0x03, 0x3f, 0xf0, 0x03, 0x3f, 0xf0, 0x03,
0x3f, 0xf0, 0x03, 0x3f, 0xf0, 0x03, 0x3f, 0xf0, 0x03, 0x3f, 0xf0, 0x03,
0x3f, 0xf0, 0x03, 0x3f, 0xf0, 0x03, 0x3f, 0xf0, 0x03, 0x3f, 0xf0, 0x03,
0x3f, 0xf0, 0x03, 0x3f, 0xf0, 0x03, 0x3f, 0xf0, 0x03, 0x3f, 0xf0, 0x03,
0xc0, 0x0f, 0xfc, 0xc0, 0x0f, 0xfc, 0xc0, 0x0f, 0xfc, 0xc0, 0x0f, 0xfc,
0xc0, 0x0f, 0xfc, 0xc0, 0x0f, 0xfc, 0xc0, 0x0f, 0xfc, 0xc0, 0x0f, 0xfc,
0xc0, 0x0f, 0xfc, 0xc0, 0x0f, 0xfc, 0xc0, 0x0f, 0xfc, 0xc0, 0x0f, 0xfc,
0xc0, 0x0f, 0xfc, 0xc0, 0x0f, 0xfc, 0xc0, 0x0f, 0xfc, 0xc0, 0x0f, 0xfc };
